X: 1027
T: Wild Fiddler's Rag
C:Howdy Forrester
B: jims roots
M:C|
L:1/8
Q: 1/4=100
K:G
V:1 
Bc |:"G"dbgd "D7"cdfa | "G"Bdgd "D7"cdfd | "G"Bdgd fedB | "D7"c6 AB |
ca gz cg fz | cgfc AF Dz | AFDF ^AFDF |"G"B6 Bc ||
dbgd "D7"cdfa | "G"Bdgd "D7"cdfd | "G"gfg2b2a2 | "C"c6 cd |
"Eb"_e2 _BG _E3 ^a | "G"b2gd B3g "D7"fdcA ecAF |[1 "G"G6Bc:|[2  "G" "fine"G8 ||
|:^C2D2 F2G2 | ^A2B2 d2 "2"bc' | d'c'ba gf"0"ed | "D7"c6z2 |
^C2D2 =F2^F2 | ^G2A2 c2 fg | afga gfed | "G"B6z2 |
^C2D2 F2G2 | ^A2B2 d2 "2"bc' | "G7"d'c'ba gf"0"ed | "C"c4z2 (3_Bcd |
"Eb"_e2 _BG _E3 ^a | "G"b2gd B3g "D7"fdcA ecAF |"G"G8 :|
|:"C"G2EG c2Gc | e2ce "3"c'4 | c'bag b2g2 | "G7""3"f6 (3fe_e |
d2Bd f2df | a2fa c'4 | c'bag b2g2 | "C"e6^F2 |
G2EG c2Gc | e2ce c'4 | "C7"c'2bc'd'2c'2 | "F"a4 z2fg |
"Ab7"_acfg a2fa | "C"(3gag ec g2eg | "G7"fedc BGBd | "C""D.S. al fine"c6 :|
% abcbook-tune_id 6298c297540ae83741e78cc9


% abcbook-boost 0
% abcbook-tablature 
% abcbook-transpose 
% abcbook-lastupdated 1654178456943
% abcbook-soundfonts 
% abcbook-repeats 1


